X:1
T: The Maid of Selma
C:
R:Jig
Q:180
K:G
M:6/8
L:1/16
G4E2 E2D2E2|G6g4e2|d4B2 B2A2G2|A2B2A2 A4B2|G4E2 E2D2E2|G6g4e2|d4B2 B2A2G2|A6G6|
G4E2 E2D2E2|G6g4e2|d4B2 B2A2G2|A2B2A2 A4B2|G4E2 E2D2E2|G6g4e2|d4B2 B2A2G2|A6G6|
d6 g2f2g2|e6 d2c2B2|d4e2 g4a2|b4e2e6|d6 g2f2g2|e6 d2c2B2|d4e2 g4b2|a6g4a2|
b4e2 e2f2g2|f4d2d6|e4B2 B2A2G2|A4E2E6|G4E2 E2D2E2|G6g6|e2d2B2 B2A2G2|A6G6||
